packages/bezier-icons/icons/fast-forward.svg

<svg width="24" height="24" viewBox="0 0 24 24" fill="none" xmlns="http://www.w3.org/2000/svg">
<path fill-rule="evenodd" clip-rule="evenodd" d="M3 6.17252V17.8275L11.7477 12L3 6.17252ZM13 17.8275L21.7477 12L13 6.17252V17.8275ZM1 5.70558C1 4.30813 2.55722 3.47439 3.72023 4.24916L11 9.09877V5.70558C11 4.30813 12.5572 3.47439 13.7202 4.24916L23.1689 10.5436C24.2086 11.2362 24.2086 12.7638 23.1689 13.4564L13.7202 19.7509C12.5572 20.5257 11 19.6919 11 18.2945V14.9013L3.72023 19.7509C2.55722 20.5257 1 19.6919 1 18.2945V5.70558Z" fill="#313234"/>
</svg>

<svg xmlns="http://www.w3.org/2000/svg" width="24" height="24" fill="none" viewBox="0 0 24 24"><path fill="#313234" fill-rule="evenodd" d="M3 6.173v11.655L11.748 12zm10 11.655L21.748 12 13 6.173zM1 5.706c0-1.398 1.557-2.232 2.72-1.457L11 9.1V5.706c0-1.398 1.557-2.232 2.72-1.457l9.449 6.295a1.75 1.75 0 0 1 0 2.912l-9.449 6.295c-1.163.775-2.72-.06-2.72-1.457v-3.393l-7.28 4.85C2.557 20.526 1 19.69 1 18.294z" clip-rule="evenodd"/></svg>
